brandFactory_export/3.Masa/Tranvía _3Masa.svg

<?xml version="1.0" encoding="UTF-8"?>
<svg width="24px" height="24px" viewBox="0 0 24 24" version="1.1" xmlns="http://www.w3.org/2000/svg" xmlns:xlink="http://www.w3.org/1999/xlink">
    <title>3.Masa/Tranvía _3Masa</title>
    <g id="Symbols" stroke="none" stroke-width="1" fill="none" fill-rule="evenodd">
        <g id="3.Masa/Tranvía-_3Masa" fill="#5CB615" fill-rule="nonzero">
            <path d="M15.4890756,13.8420168 L15.4890756,8.88403361 C16.1210084,8.93781513 19.7042017,9.40504202 21.4151261,12.9109244 C21.5764706,13.2403361 21.7008403,13.5462185 21.8084034,13.8420168 L15.4890756,13.8420168 L15.4890756,13.8420168 Z M20.0470588,19.0386555 L19.9563025,19.0957983 C19.7815126,19.2134454 19.5831933,19.307563 19.3815126,19.2705882 L18.3529412,19.2638655 C17.9966387,18.6184874 17.3310924,18.2319328 16.4537815,18.2319328 C15.5831933,18.2319328 14.9176471,18.6117647 14.5579832,19.2470588 L10.9142857,19.2403361 C10.5546218,18.6084034 9.89243697,18.2319328 9.02184874,18.2319328 C8.15462185,18.2319328 7.49243697,18.6084034 7.13277311,19.2403361 L6.02016807,19.2403361 C5.6605042,18.6084034 4.99831933,18.2319328 4.13109244,18.2319328 C3.26386555,18.2319328 2.60168067,18.605042 2.24201681,19.2369748 L1.47563025,19.2369748 L1.47563025,17.4352941 L21.7714286,17.4352941 C21.3310924,18.1848739 20.6218487,18.6554622 20.0470588,19.0386555 Z M16.4537815,21.2168067 C15.9159664,21.2168067 15.707563,21.005042 15.707563,20.4605042 C15.707563,19.9159664 15.9159664,19.7042017 16.4537815,19.7042017 C16.9915966,19.7042017 17.2,19.9159664 17.2,20.4605042 C17.2,21.005042 16.9915966,21.2168067 16.4537815,21.2168067 Z M9.02521008,21.2168067 C8.48739496,21.2168067 8.2789916,21.005042 8.2789916,20.4605042 C8.2789916,19.9159664 8.48739496,19.7042017 9.02521008,19.7042017 C9.56302521,19.7042017 9.77142857,19.9159664 9.77142857,20.4605042 C9.77142857,21.005042 9.56302521,21.2168067 9.02521008,21.2168067 Z M4.13781513,21.2168067 C3.6,21.2168067 3.39159664,21.005042 3.39159664,20.4605042 C3.39159664,19.9159664 3.6,19.7042017 4.13781513,19.7042017 C4.67226891,19.7042017 4.88403361,19.9159664 4.88403361,20.4605042 C4.88067227,21.005042 4.67226891,21.2168067 4.13781513,21.2168067 L4.13781513,21.2168067 Z M1.4789916,9.69747899 L4.49747899,9.69747899 L4.49747899,13.7579832 L1.4789916,13.7579832 L1.4789916,9.69747899 Z M6.18487395,13.7613445 L8.89411765,13.7613445 L8.89411765,9.69747899 L6.18487395,9.69747899 L6.18487395,13.7613445 Z M10.3394958,6.20168067 L11.2,6.20168067 L10.0134454,7.40840336 L9.15294118,7.40840336 L10.3394958,6.20168067 Z M9.33445378,4.73613445 L14.194958,4.73613445 L14.194958,3.48235294 L9.33445378,3.48235294 L9.33445378,4.73613445 L9.33445378,4.73613445 Z M10.5781513,13.7613445 L13.3411765,13.7613445 L13.3411765,9.69747899 L10.5781513,9.69747899 L10.5781513,13.7613445 Z M22.7092437,12.2588235 C20.487395,7.70084034 15.6672269,7.41848739 15.4285714,7.40840336 L12.0571429,7.40840336 L13.2436975,6.20168067 L14.9142857,6.20168067 C15.3142857,6.20168067 15.6369748,5.87226891 15.6369748,5.46890756 L15.6369748,3.48235294 L22.7697479,3.48235294 C23.1697479,3.48235294 23.492437,3.15294118 23.492437,2.74957983 C23.492437,2.34285714 23.1697479,2.01680672 22.7697479,2.01680672 L0.752941176,2.01680672 C0.352941176,2.01680672 0.0302521008,2.34621849 0.0302521008,2.74957983 C0.0302521008,3.15630252 0.352941176,3.48235294 0.752941176,3.48235294 L7.88571429,3.48235294 L7.88571429,5.46890756 C7.88571429,5.78151261 8.07731092,6.04369748 8.34621849,6.1512605 L7.10588235,7.40840336 L0.752941176,7.40840336 C0.561344538,7.40840336 0.376470588,7.48571429 0.242016807,7.62352941 C0.107563025,7.76134454 0.0302521008,7.94621849 0.0302521008,8.14117647 L0.0302521008,19.9764706 C0.0302521008,20.3831933 0.352941176,20.7092437 0.752941176,20.7092437 L1.95966387,20.7092437 C2.0605042,21.912605 2.88739496,22.6857143 4.13109244,22.6857143 C5.37815126,22.6857143 6.19831933,21.9159664 6.30252101,20.712605 L6.85042017,20.712605 C6.95462185,21.9159664 7.77815126,22.6857143 9.02184874,22.6857143 C10.2655462,22.6857143 11.0890756,21.9159664 11.1932773,20.7159664 L14.2789916,20.7226891 C14.3865546,21.9226891 15.2067227,22.6890756 16.4504202,22.6890756 C17.687395,22.6890756 18.507563,21.9294118 18.6184874,20.7394958 L19.3680672,20.7428571 L19.3882353,20.7428571 C19.8689076,20.7428571 20.3394958,20.5983193 20.7462185,20.3294118 L20.8336134,20.2689076 C22.1445378,19.3983193 25.2,17.3647059 22.7092437,12.2588235 L22.7092437,12.2588235 Z" id="Tranvía-_3Masa"></path>
        </g>
    </g>
</svg>

<svg width="24" height="24" viewBox="0 0 24 24" xmlns="http://www.w3.org/2000/svg"><path d="M15.49 13.842V8.884c.631.054 4.214.521 5.925 4.027.161.33.286.635.393.931H15.49zm4.557 5.197l-.09.057c-.175.117-.374.212-.575.175l-1.03-.007c-.355-.646-1.02-1.032-1.898-1.032-.87 0-1.536.38-1.896 1.015l-3.644-.007c-.36-.632-1.022-1.008-1.892-1.008-.867 0-1.53.376-1.89 1.008H6.02c-.36-.632-1.022-1.008-1.889-1.008s-1.53.373-1.889 1.005h-.766v-1.802H21.77c-.44.75-1.15 1.22-1.724 1.604zm-3.593 2.178c-.538 0-.746-.212-.746-.756 0-.545.208-.757.746-.757s.746.212.746.757c0 .544-.208.756-.746.756zm-7.429 0c-.538 0-.746-.212-.746-.756 0-.545.208-.757.746-.757s.746.212.746.757c0 .544-.208.756-.746.756zm-4.887 0c-.538 0-.746-.212-.746-.756 0-.545.208-.757.746-.757.534 0 .746.212.746.757-.003.544-.212.756-.746.756zM1.479 9.697h3.018v4.061H1.48v-4.06zm4.706 4.064h2.71V9.697h-2.71v4.064zm4.154-7.56h.861l-1.187 1.207h-.86l1.186-1.206zM9.334 4.737h4.861V3.482h-4.86v1.254zm1.244 9.025h2.763V9.697h-2.763v4.064zM22.71 12.26c-2.222-4.558-7.042-4.84-7.28-4.85h-3.372l1.187-1.207h1.67c.4 0 .723-.33.723-.733V3.482h7.133c.4 0 .722-.33.722-.732a.726.726 0 00-.722-.733H.753c-.4 0-.723.33-.723.733 0 .406.323.732.723.732h7.133V5.47c0 .313.191.575.46.682l-1.24 1.257H.753a.715.715 0 00-.511.216.741.741 0 00-.212.517v11.835c0 .407.323.733.723.733H1.96c.1 1.204.927 1.977 2.171 1.977 1.247 0 2.067-.77 2.172-1.973h.547c.105 1.203.928 1.973 2.172 1.973 1.244 0 2.067-.77 2.171-1.97l3.086.007c.108 1.2.928 1.966 2.171 1.966 1.237 0 2.058-.76 2.168-1.95l.75.004h.02c.48 0 .951-.145 1.358-.414l.088-.06c1.31-.87 4.366-2.904 1.875-8.01z" fill="#5CB615" fill-rule="nonzero"/></svg>
